X:1
T:Cape Hatteras, CM
T:Cape Hatteras, CM
T:James Hearknett Wallis, 1915
T:Public Domain Courtesy of the Cyber Hymnal™
C:James Hearknett Wallis, 1915
Z:Public Domain
Z:Courtesy of the Cyber Hymnal™
%%score ( 1 2 ) ( 3 4 )
L:1/8
Q:1/4=105
M:4/4
K:D
V:1 treble 
V:2 treble 
V:3 bass 
V:4 bass 
V:1
 z8 | z6 [Fd]2 | [GB]2 [Ec]2 [FA]2 [DB]2 | [EG]2 [CA]2 [DF]4 | [DF]2 [DG]2 [DF]2 [CE]2 | %5
 [DA]4 [DA]2 [Fc]2 | [GB]2 [Ec]2 [FA]2 [DB]2 | [EG]2 [CA]2 [DF]4 | [DF]2 [DG]2 [DF]2 [CE]2 | %9
 [DA]4 [DA]2 [FA]2 | [D^G]2 [DF]2 [DE]2 [DA]2 | [D^G]2 [DF]2 [DE]2 [DA]2 | %12
 [D^G]2 [Fd]2 [Ec]2 [EB]2 | (e4 A2) [Fd]2 | [FB]2 [^Ec]2 [FA]2 [FB]2 | [FG]2 [EA]2 [DF]2 [DA]2 | %16
 [DB]2 [Gd]2 c3 [Ec] | [Dd]8 |] %18
V:2
 x8 | x8 | x8 | x8 | x8 | x8 | x8 | x8 | x8 | x8 | x8 | x8 | x8 | =G6 x2 | x8 | x8 | x4 (G2 F) x | %17
 x8 |] %18
V:3
 [D,A,]8 | [D,A,]8 | [D,A,]8 | [D,A,]6 D2 | [CD]2 [B,D]2 [A,D]2 [G,A,]2 | %5
 ([F,A,]2 [E,G,]2) [D,F,]2 z2 | [D,A,]8 | [D,A,]6 D2 | [CD]2 [B,D]2 [A,D]2 [G,A,]2 | %9
 ([F,A,]2 [E,G,]2) [D,F,]2 [D,B,]2 | [E,B,]2 [E,A,]2 [E,^G,]2 [E,C]2 | %11
 [E,B,]2 [E,A,]2 [E,^G,]2 [E,C]2 | [E,B,]2 [E,A,]2 [E,^G,]2 [G,D]2 | (D2 B,2 C2) [A,D]2 | %14
 [^G,D]2 [C,C]2 [F,C]2 [B,,D]2 | [E,D]2 [A,,=C]2 [D,C]2 [F,C]2 | [G,B,]2 [E,B,]2 (B,2 A,)[A,,G,] | %17
 [D,F,]8 |] %18
V:4
 x8 | x8 | x8 | x8 | x8 | x8 | x8 | x8 | x8 | x8 | x8 | x8 | x8 | A,6 x2 | x8 | x8 | x4 A,,3 x | %17
 x8 |] %18

